X: 4779
T:THUNDERHEAD JIG
M:6/8
L:1/8
C:TRAD 
S:UNKWOWN
K:G
~B3 fBB|eBB dBA|~B3 fgf|edB ABd|!
~B3 fBB|eBB def|gfe fdB|ADF ABc:|!
dGG AGE|DEG ~F3|EFF EFF|GFE ~F3|dGG AGE|!
DEG FGA|1 BdB ceg|fgaf g3:|2 Bde fgf|edB AGd||!
